assets/images/icon.svg

<?xml version="1.0" encoding="UTF-8" standalone="no"?>
<svg
   width="100%"
   height="100%"
   viewBox="0 0 512 512"
   version="1.1"
   xml:space="preserve"
   style="fill-rule:evenodd;clip-rule:evenodd;stroke-linecap:round;stroke-linejoin:round;"
   id="svg87"
   xmlns="http://www.w3.org/2000/svg"
   xmlns:svg="http://www.w3.org/2000/svg"><defs
   id="defs91" />
    <g
   id="rainbow.svg"
   transform="matrix(2.8010109,0,0,2.8010109,332.21783,387.38716)">
        
    <path
   d="m 61.49,16.21 c 12.39,0 23.6,5.02 31.71,13.14 8.12,8.12 13.14,19.33 13.14,31.71 H 99.28 C 99.28,50.62 95.05,41.17 88.21,34.34 81.37,27.5 71.92,23.27 61.49,23.27 51.05,23.27 41.6,27.5 34.77,34.34 27.93,41.17 23.7,50.62 23.7,61.06 h -7.06 c 0,-12.39 5.02,-23.6 13.14,-31.71 8.11,-8.12 19.33,-13.14 31.71,-13.14 z"
   style="clip-rule:evenodd;fill:#f20000;fill-rule:nonzero;stroke-linecap:round;stroke-linejoin:round"
   id="path5"
   transform="translate(-61.44,-30.530001)" /><path
   d="m 61.49,23.18 c 10.46,0 19.93,4.24 26.79,11.1 6.86,6.86 11.1,16.33 11.1,26.79 h -5.96 c 0,-8.81 -3.57,-16.8 -9.35,-22.57 -5.78,-5.78 -13.76,-9.35 -22.57,-9.35 -8.81,0 -16.8,3.57 -22.57,9.35 -5.78,5.78 -9.35,13.76 -9.35,22.57 h -5.96 c 0,-10.46 4.24,-19.93 11.1,-26.79 6.84,-6.86 16.31,-11.1 26.77,-11.1 z"
   style="clip-rule:evenodd;fill:#ff6a00;fill-rule:nonzero;stroke-linecap:round;stroke-linejoin:round"
   id="path7"
   transform="translate(-61.44,-30.530001)" /><path
   d="m 61.49,29.06 c 8.84,0 16.84,3.58 22.63,9.37 5.79,5.79 9.37,13.79 9.37,22.63 h -5.03 c 0,-7.45 -3.02,-14.19 -7.9,-19.07 -4.88,-4.88 -11.62,-7.9 -19.07,-7.9 -7.45,0 -14.19,3.02 -19.07,7.9 -4.88,4.88 -7.9,11.62 -7.9,19.07 h -5.03 c 0,-8.84 3.58,-16.84 9.37,-22.63 5.8,-5.79 13.8,-9.37 22.63,-9.37 z"
   style="clip-rule:evenodd;fill:#fdee21;fill-rule:nonzero;stroke-linecap:round;stroke-linejoin:round"
   id="path9"
   transform="translate(-61.44,-30.530001)" /><path
   d="m 61.49,34.03 c 7.46,0 14.22,3.02 19.11,7.92 4.89,4.89 7.92,11.65 7.92,19.11 h -4.25 c 0,-6.29 -2.55,-11.98 -6.67,-16.1 -4.12,-4.12 -9.81,-6.67 -16.1,-6.67 -6.29,0 -11.98,2.55 -16.1,6.67 -4.12,4.12 -6.67,9.81 -6.67,16.1 h -4.25 c 0,-7.46 3.02,-14.22 7.92,-19.11 4.87,-4.89 11.63,-7.92 19.09,-7.92 z"
   style="clip-rule:evenodd;fill:#6ec700;fill-rule:nonzero;stroke-linecap:round;stroke-linejoin:round"
   id="path11"
   transform="translate(-61.44,-30.530001)" /><path
   d="m 61.49,38.23 c 6.3,0 12.01,2.55 16.14,6.69 4.13,4.13 6.69,9.84 6.69,16.14 h -3.59 c 0,-5.31 -2.15,-10.12 -5.63,-13.6 -3.48,-3.48 -8.29,-5.63 -13.6,-5.63 -5.31,0 -10.12,2.15 -13.6,5.63 -3.48,3.48 -5.63,8.29 -5.63,13.6 h -3.59 c 0,-6.3 2.55,-12.01 6.69,-16.14 4.11,-4.13 9.82,-6.69 16.12,-6.69 z"
   style="clip-rule:evenodd;fill:#29aae3;fill-rule:nonzero;stroke-linecap:round;stroke-linejoin:round"
   id="path13"
   transform="translate(-61.44,-30.530001)" /><path
   d="m 61.49,41.78 c 5.32,0 10.14,2.16 13.63,5.65 3.49,3.49 5.65,8.31 5.65,13.63 h -3.03 c 0,-4.49 -1.82,-8.55 -4.76,-11.49 -2.94,-2.94 -7,-4.76 -11.49,-4.76 -4.49,0 -8.55,1.82 -11.49,4.76 -2.94,2.94 -4.76,7 -4.76,11.49 h -3.03 c 0,-5.32 2.16,-10.15 5.65,-13.63 3.49,-3.49 8.31,-5.65 13.63,-5.65 z"
   style="clip-rule:evenodd;fill:#3d44db;fill-rule:nonzero;stroke-linecap:round;stroke-linejoin:round"
   id="path15"
   transform="translate(-61.44,-30.530001)" /><path
   d="m 61.49,44.77 c 4.5,0 8.57,1.82 11.52,4.77 2.95,2.95 4.77,7.02 4.77,11.52 h -2.56 c 0,-3.79 -1.54,-7.22 -4.02,-9.7 -2.48,-2.48 -5.91,-4.02 -9.7,-4.02 -3.79,0 -7.22,1.54 -9.7,4.02 -2.48,2.48 -4.02,5.91 -4.02,9.7 h -2.56 c 0,-4.5 1.82,-8.57 4.77,-11.52 2.93,-2.94 7,-4.77 11.5,-4.77 z"
   style="clip-rule:evenodd;fill:#8327de;fill-rule:nonzero;stroke-linecap:round;stroke-linejoin:round"
   id="path17"
   transform="translate(-61.44,-30.530001)" /><path
   d="m 11.16,44.72 c 1.8,0.48 2.88,2.34 2.4,4.14 -0.48,1.8 -2.34,2.88 -4.14,2.4 l -6.9,-1.85 c -1.8,-0.48 -2.88,-2.34 -2.4,-4.14 0.48,-1.8 2.34,-2.88 4.14,-2.39 z"
   style="clip-rule:evenodd;fill:#f20000;fill-rule:nonzero;stroke-linecap:round;stroke-linejoin:round"
   id="path19"
   transform="translate(-61.44,-30.530001)" /><path
   d="m 26.29,21.8 c 1.32,1.32 1.32,3.47 0,4.79 -1.32,1.32 -3.47,1.32 -4.79,0 l -5.05,-5.05 c -1.32,-1.32 -1.32,-3.47 0,-4.79 1.32,-1.32 3.47,-1.32 4.79,0 z"
   style="clip-rule:evenodd;fill:#ff6a00;fill-rule:nonzero;stroke-linecap:round;stroke-linejoin:round"
   id="path21"
   transform="translate(-61.44,-30.530001)" /><path
   d="m 50.85,9.52 c 0.48,1.8 -0.59,3.66 -2.39,4.14 -1.8,0.48 -3.66,-0.59 -4.14,-2.39 l -1.85,-6.9 c -0.48,-1.8 0.59,-3.66 2.39,-4.14 1.8,-0.48 3.66,0.59 4.14,2.39 z"
   style="clip-rule:evenodd;fill:#ffae00;fill-rule:nonzero;stroke-linecap:round;stroke-linejoin:round"
   id="path23"
   transform="translate(-61.44,-30.530001)" /><path
   d="m 78.27,11.16 c -0.48,1.8 -2.34,2.88 -4.14,2.4 -1.8,-0.48 -2.88,-2.34 -2.39,-4.14 l 1.85,-6.9 c 0.48,-1.8 2.34,-2.88 4.14,-2.4 1.8,0.48 2.88,2.34 2.39,4.14 z"
   style="clip-rule:evenodd;fill:#3ab54a;fill-rule:nonzero;stroke-linecap:round;stroke-linejoin:round"
   id="path25"
   transform="translate(-61.44,-30.530001)" /><path
   d="m 101.19,26.29 c -1.32,1.32 -3.47,1.32 -4.79,0 -1.32,-1.32 -1.32,-3.47 0,-4.79 l 5.05,-5.05 c 1.32,-1.32 3.47,-1.32 4.79,0 1.32,1.32 1.32,3.47 0,4.79 z"
   style="clip-rule:evenodd;fill:#29aae3;fill-rule:nonzero;stroke-linecap:round;stroke-linejoin:round"
   id="path27"
   transform="translate(-61.44,-30.530001)" /><path
   d="m 113.47,50.85 c -1.8,0.48 -3.66,-0.59 -4.14,-2.4 -0.48,-1.8 0.59,-3.66 2.4,-4.14 l 6.9,-1.85 c 1.8,-0.48 3.66,0.59 4.14,2.4 0.48,1.8 -0.59,3.66 -2.4,4.14 z"
   style="clip-rule:evenodd;fill:#662d91;fill-rule:nonzero;stroke-linecap:round;stroke-linejoin:round"
   id="path29"
   transform="translate(-61.44,-30.530001)" /></g>
    <g
   id="laugh.svg"
   transform="matrix(2.1619,0,0,2.1619,256,151.095)">
        <g
   transform="matrix(1,0,0,1,-61.44,-61.44)"
   id="g48">
            <g
   id="g46">
                <path
   d="M45.54,2.11C78.31,-6.67 111.99,12.78 120.77,45.54C129.55,78.31 110.1,111.99 77.34,120.77C44.57,129.55 10.89,110.1 2.11,77.34C-6.67,44.57 12.77,10.89 45.54,2.11Z"
   style="fill:rgb(251,212,51);"
   id="path38" />
                <path
   d="M41.89,27.86C46.19,27.86 49.67,32.77 49.67,38.83C49.67,44.89 46.19,49.8 41.89,49.8C37.59,49.8 34.11,44.89 34.11,38.83C34.11,32.77 37.59,27.86 41.89,27.86ZM28.55,67.12C45.23,66.6 79.56,67.41 94.33,67.08C94.33,106.85 28.55,110.65 28.55,67.12ZM80.99,27.86C85.29,27.86 88.77,32.77 88.77,38.83C88.77,44.89 85.29,49.8 80.99,49.8C76.69,49.8 73.21,44.89 73.21,38.83C73.21,32.77 76.69,27.86 80.99,27.86Z"
   style="fill:rgb(20,21,24);"
   id="path40" />
                <path
   d="M28.55,67.12C45.23,65.6 79.56,66.45 94.33,67.08C94.52,81.23 28.75,81.05 28.55,67.12Z"
   style="fill:white;"
   id="path42" />
                <path
   d="M38.6,90.95C49.71,100.56 70.44,100.94 82.9,90.95C76.12,83.24 68.72,83 60.51,89.07C52.05,82.3 46.38,82.11 38.6,90.95Z"
   style="fill:rgb(255,0,0);"
   id="path44" />
            </g>
        </g>
    </g>
    <g
   id="ice-cream-color.svg"
   transform="matrix(1.82585,0,0,1.82585,95.9265,377.288)"
   style="display:inline">
        
    <path
   d="M 44,20.38 C 44,11.38 27.8,10.75 37.22,1.91 25.78,-2.47 13.66,5.24 16.31,19.46 7.68,20.78 4,29.62 8.36,38.12 -1.11,40.74 -3.38,50.7 6,58.62 H 55.29 C 66.49,53 62.36,37 51.78,34.79 53.73,26.47 50.32,22.3 44,20.38 Z"
   style="clip-rule:evenodd;display:inline;fill:#ef6c93;fill-rule:nonzero;stroke-linecap:round;stroke-linejoin:round"
   id="path54"
   transform="translate(-30.975,-61.439998)" /><path
   d="m 44,20.38 c 0.002,-0.729 -0.11,-1.455 -0.33,-2.15 -2.027,2.2 -4.541,3.896 -7.34,4.95 -2.109,0.837 -4.461,0.837 -6.57,0 -0.213,-0.079 -0.439,-0.119 -0.666,-0.119 -1.054,0 -1.92,0.866 -1.92,1.92 0,0.712 0.396,1.368 1.026,1.699 2.986,1.254 6.343,1.311 9.37,0.16 3.248,-1.209 6.182,-3.138 8.58,-5.64 C 45.451,20.888 44.733,20.621 44,20.4 Z"
   style="clip-rule:evenodd;fill-rule:nonzero;stroke-linecap:round;stroke-linejoin:round"
   id="path56"
   transform="translate(-30.975,-61.439998)" /><path
   d="m 55.35,36.16 c -1.109,-0.645 -2.314,-1.107 -3.57,-1.37 0.18,-0.79 0.32,-1.55 0.41,-2.27 -3.08,0.774 -6.07,1.87 -8.92,3.27 -6.38,2.83 -13.66,6.06 -19.83,2.92 -0.252,-0.116 -0.527,-0.177 -0.805,-0.177 -1.053,0 -1.92,0.867 -1.92,1.92 0,0.695 0.378,1.338 0.985,1.677 7.79,4 16,0.35 23.12,-2.82 4.13,-1.84 7.89,-3.5 10.48,-3.16 z"
   style="clip-rule:evenodd;fill-rule:nonzero;stroke-linecap:round;stroke-linejoin:round"
   id="path58"
   transform="translate(-30.975,-61.439998)" /><path
   d="M 26.26,122.88 4.11,63.13 c 19.74,-0.9 29.39,0.15 51.49,0 l -23.15,59.75 z"
   style="clip-rule:evenodd;fill:#f8af46;fill-rule:nonzero;stroke-linecap:round;stroke-linejoin:round"
   id="path60"
   transform="translate(-30.975,-61.439998)" /><path
   d="m 26,109.12 -2.17,-5.87 13.86,-3.14 -2.7,7 -9,2 z m -4.46,-12 -2.17,-5.86 23.86,-5.42 -2.7,7 -19,4.31 z m -4.45,-12 -2.22,-5.92 33.86,-7.68 -2.7,7 -29,6.58 z"
   style="clip-rule:evenodd;fill:#fac882;fill-rule:nonzero;stroke-linecap:round;stroke-linejoin:round"
   id="path62"
   transform="translate(-30.975,-61.439998)" /><path
   d="m 38.12,0 c 0.003,0 0.007,0 0.01,0 5.338,0 9.73,4.392 9.73,9.73 0,5.338 -4.392,9.73 -9.73,9.73 -5.337,0 -9.73,-4.392 -9.73,-9.73 0,-2.579 1.026,-5.056 2.85,-6.88 1.819,-1.825 4.293,-2.852 6.87,-2.85 z"
   style="clip-rule:evenodd;fill-rule:nonzero;stroke-linecap:round;stroke-linejoin:round"
   id="path64"
   transform="translate(-30.975,-61.439998)" /><path
   d="m 38.12,1.92 c 4.279,0 7.8,3.521 7.8,7.8 0,4.279 -3.521,7.8 -7.8,7.8 -4.279,0 -7.8,-3.521 -7.8,-7.8 0,-4.279 3.521,-7.8 7.8,-7.8 z"
   style="clip-rule:evenodd;fill:#ee3f69;fill-rule:nonzero;stroke-linecap:round;stroke-linejoin:round"
   id="path66"
   transform="translate(-30.975,-61.439998)" /><path
   d="m 22.3,13.83 c 1.097,0 2,0.903 2,2 0,1.097 -0.903,2 -2,2 -1.097,0 -2,-0.903 -2,-2 0,-1.097 0.903,-2 2,-2 z"
   style="clip-rule:evenodd;fill-rule:nonzero;stroke-linecap:round;stroke-linejoin:round"
   id="path68"
   transform="translate(-30.975,-61.439998)" /><path
   d="m 29.87,47.08 h 0.01 c 0.763,0 1.39,0.627 1.39,1.39 0,0.762 -0.627,1.39 -1.39,1.39 -0.763,0 -1.39,-0.627 -1.39,-1.39 0,-0.003 0,-0.007 0,-0.01 0,-0.757 0.623,-1.38 1.38,-1.38 z"
   style="clip-rule:evenodd;fill-rule:nonzero;stroke-linecap:round;stroke-linejoin:round"
   id="path70"
   transform="translate(-30.975,-61.439998)" /><path
   d="m 23.95,50.62 1.77,2.1"
   style="clip-rule:evenodd;fill:none;fill-rule:nonzero;stroke:#ffffff;stroke-width:1.54px;stroke-linecap:round;stroke-linejoin:round"
   id="path72"
   transform="translate(-30.975,-61.439998)" /><path
   d="m 51.65,46 c 0.763,0 1.39,0.627 1.39,1.39 0,0.763 -0.628,1.39 -1.39,1.39 -0.763,0 -1.39,-0.627 -1.39,-1.39 v -0.01 c 0,-0.757 0.623,-1.38 1.38,-1.38 0.003,0 0.007,0 0.01,0 z"
   style="clip-rule:evenodd;fill-rule:nonzero;stroke-linecap:round;stroke-linejoin:round"
   id="path74"
   transform="translate(-30.975,-61.439998)" /><path
   d="m 45.73,49.5 1.77,2.1"
   style="clip-rule:evenodd;fill:none;fill-rule:nonzero;stroke:#ffffff;stroke-width:1.54px;stroke-linecap:round;stroke-linejoin:round"
   id="path76"
   transform="translate(-30.975,-61.439998)" /><path
   d="m 12.52,44.64 c 0.757,0 1.38,0.623 1.38,1.38 0,0.757 -0.623,1.38 -1.38,1.38 -0.757,0 -1.38,-0.623 -1.38,-1.38 0,-0.007 0,-0.013 0,-0.02 0,-0.757 0.623,-1.38 1.38,-1.38 z"
   style="clip-rule:evenodd;fill-rule:nonzero;stroke-linecap:round;stroke-linejoin:round"
   id="path78"
   transform="translate(-30.975,-61.439998)" /><path
   d="m 6.61,48.17 1.76,2.1"
   style="clip-rule:evenodd;fill:none;fill-rule:nonzero;stroke:#ffffff;stroke-width:1.54px;stroke-linecap:round;stroke-linejoin:round"
   id="path80"
   transform="translate(-30.975,-61.439998)" /></g>
</svg>

<?xml version="1.0" encoding="UTF-8" standalone="no"?>
<!DOCTYPE svg PUBLIC "-//W3C//DTD SVG 1.1//EN" "http://www.w3.org/Graphics/SVG/1.1/DTD/svg11.dtd">
<svg width="100%" height="100%" viewBox="0 0 512 512" version="1.1" xmlns="http://www.w3.org/2000/svg" xmlns:xlink="http://www.w3.org/1999/xlink" xml:space="preserve" xmlns:serif="http://www.serif.com/" style="fill-rule:evenodd;clip-rule:evenodd;stroke-linecap:round;stroke-linejoin:round;">
    <g id="rainbow.svg" transform="matrix(2.47673,0,0,2.47673,353.249,359.537)">
        <g transform="matrix(1,0,0,1,-61.44,-30.53)">
            <clipPath id="_clip1">
                <rect x="0" y="0" width="122.88" height="61.06"/>
            </clipPath>
            <g clip-path="url(#_clip1)">
                <g>
                    <path d="M61.49,16.21C73.88,16.21 85.09,21.23 93.2,29.35C101.32,37.47 106.34,48.68 106.34,61.06L99.28,61.06C99.28,50.62 95.05,41.17 88.21,34.34C81.37,27.5 71.92,23.27 61.49,23.27C51.05,23.27 41.6,27.5 34.77,34.34C27.93,41.17 23.7,50.62 23.7,61.06L16.64,61.06C16.64,48.67 21.66,37.46 29.78,29.35C37.89,21.23 49.11,16.21 61.49,16.21Z" style="fill:rgb(242,0,0);fill-rule:nonzero;"/>
                    <path d="M61.49,23.18C71.95,23.18 81.42,27.42 88.28,34.28C95.14,41.14 99.38,50.61 99.38,61.07L93.42,61.07C93.42,52.26 89.85,44.27 84.07,38.5C78.29,32.72 70.31,29.15 61.5,29.15C52.69,29.15 44.7,32.72 38.93,38.5C33.15,44.28 29.58,52.26 29.58,61.07L23.62,61.07C23.62,50.61 27.86,41.14 34.72,34.28C41.56,27.42 51.03,23.18 61.49,23.18Z" style="fill:rgb(255,106,0);fill-rule:nonzero;"/>
                    <path d="M61.49,29.06C70.33,29.06 78.33,32.64 84.12,38.43C89.91,44.22 93.49,52.22 93.49,61.06L88.46,61.06C88.46,53.61 85.44,46.87 80.56,41.99C75.68,37.11 68.94,34.09 61.49,34.09C54.04,34.09 47.3,37.11 42.42,41.99C37.54,46.87 34.52,53.61 34.52,61.06L29.49,61.06C29.49,52.22 33.07,44.22 38.86,38.43C44.66,32.64 52.66,29.06 61.49,29.06Z" style="fill:rgb(253,238,33);fill-rule:nonzero;"/>
                    <path d="M61.49,34.03C68.95,34.03 75.71,37.05 80.6,41.95C85.49,46.84 88.52,53.6 88.52,61.06L84.27,61.06C84.27,54.77 81.72,49.08 77.6,44.96C73.48,40.84 67.79,38.29 61.5,38.29C55.21,38.29 49.52,40.84 45.4,44.96C41.28,49.08 38.73,54.77 38.73,61.06L34.48,61.06C34.48,53.6 37.5,46.84 42.4,41.95C47.27,37.06 54.03,34.03 61.49,34.03Z" style="fill:rgb(110,199,0);fill-rule:nonzero;"/>
                    <path d="M61.49,38.23C67.79,38.23 73.5,40.78 77.63,44.92C81.76,49.05 84.32,54.76 84.32,61.06L80.73,61.06C80.73,55.75 78.58,50.94 75.1,47.46C71.62,43.98 66.81,41.83 61.5,41.83C56.19,41.83 51.38,43.98 47.9,47.46C44.42,50.94 42.27,55.75 42.27,61.06L38.68,61.06C38.68,54.76 41.23,49.05 45.37,44.92C49.48,40.79 55.19,38.23 61.49,38.23Z" style="fill:rgb(41,170,227);fill-rule:nonzero;"/>
                    <path d="M61.49,41.78C66.81,41.78 71.63,43.94 75.12,47.43C78.61,50.92 80.77,55.74 80.77,61.06L77.74,61.06C77.74,56.57 75.92,52.51 72.98,49.57C70.04,46.63 65.98,44.81 61.49,44.81C57,44.81 52.94,46.63 50,49.57C47.06,52.51 45.24,56.57 45.24,61.06L42.21,61.06C42.21,55.74 44.37,50.91 47.86,47.43C51.35,43.94 56.17,41.78 61.49,41.78Z" style="fill:rgb(61,68,219);fill-rule:nonzero;"/>
                    <path d="M61.49,44.77C65.99,44.77 70.06,46.59 73.01,49.54C75.96,52.49 77.78,56.56 77.78,61.06L75.22,61.06C75.22,57.27 73.68,53.84 71.2,51.36C68.72,48.88 65.29,47.34 61.5,47.34C57.71,47.34 54.28,48.88 51.8,51.36C49.32,53.84 47.78,57.27 47.78,61.06L45.22,61.06C45.22,56.56 47.04,52.49 49.99,49.54C52.92,46.6 56.99,44.77 61.49,44.77Z" style="fill:rgb(131,39,222);fill-rule:nonzero;"/>
                    <path d="M11.16,44.72C12.96,45.2 14.04,47.06 13.56,48.86C13.08,50.66 11.22,51.74 9.42,51.26L2.52,49.41C0.72,48.93 -0.36,47.07 0.12,45.27C0.6,43.47 2.46,42.39 4.26,42.88L11.16,44.72Z" style="fill:rgb(242,0,0);fill-rule:nonzero;"/>
                    <path d="M26.29,21.8C27.61,23.12 27.61,25.27 26.29,26.59C24.97,27.91 22.82,27.91 21.5,26.59L16.45,21.54C15.13,20.22 15.13,18.07 16.45,16.75C17.77,15.43 19.92,15.43 21.24,16.75L26.29,21.8Z" style="fill:rgb(255,106,0);fill-rule:nonzero;"/>
                    <path d="M50.85,9.52C51.33,11.32 50.26,13.18 48.46,13.66C46.66,14.14 44.8,13.07 44.32,11.27L42.47,4.37C41.99,2.57 43.06,0.71 44.86,0.23C46.66,-0.25 48.52,0.82 49,2.62L50.85,9.52Z" style="fill:rgb(255,174,0);fill-rule:nonzero;"/>
                    <path d="M78.27,11.16C77.79,12.96 75.93,14.04 74.13,13.56C72.33,13.08 71.25,11.22 71.74,9.42L73.59,2.52C74.07,0.72 75.93,-0.36 77.73,0.12C79.53,0.6 80.61,2.46 80.12,4.26L78.27,11.16Z" style="fill:rgb(58,181,74);fill-rule:nonzero;"/>
                    <path d="M101.19,26.29C99.87,27.61 97.72,27.61 96.4,26.29C95.08,24.97 95.08,22.82 96.4,21.5L101.45,16.45C102.77,15.13 104.92,15.13 106.24,16.45C107.56,17.77 107.56,19.92 106.24,21.24L101.19,26.29Z" style="fill:rgb(41,170,227);fill-rule:nonzero;"/>
                    <path d="M113.47,50.85C111.67,51.33 109.81,50.26 109.33,48.45C108.85,46.65 109.92,44.79 111.73,44.31L118.63,42.46C120.43,41.98 122.29,43.05 122.77,44.86C123.25,46.66 122.18,48.52 120.37,49L113.47,50.85Z" style="fill:rgb(102,45,145);fill-rule:nonzero;"/>
                </g>
            </g>
        </g>
    </g>
    <g id="laugh.svg" transform="matrix(2.1619,0,0,2.1619,256,151.095)">
        <g transform="matrix(1,0,0,1,-61.44,-61.44)">
            <g>
                <path d="M45.54,2.11C78.31,-6.67 111.99,12.78 120.77,45.54C129.55,78.31 110.1,111.99 77.34,120.77C44.57,129.55 10.89,110.1 2.11,77.34C-6.67,44.57 12.77,10.89 45.54,2.11Z" style="fill:rgb(251,212,51);"/>
                <path d="M41.89,27.86C46.19,27.86 49.67,32.77 49.67,38.83C49.67,44.89 46.19,49.8 41.89,49.8C37.59,49.8 34.11,44.89 34.11,38.83C34.11,32.77 37.59,27.86 41.89,27.86ZM28.55,67.12C45.23,66.6 79.56,67.41 94.33,67.08C94.33,106.85 28.55,110.65 28.55,67.12ZM80.99,27.86C85.29,27.86 88.77,32.77 88.77,38.83C88.77,44.89 85.29,49.8 80.99,49.8C76.69,49.8 73.21,44.89 73.21,38.83C73.21,32.77 76.69,27.86 80.99,27.86Z" style="fill:rgb(20,21,24);"/>
                <path d="M28.55,67.12C45.23,65.6 79.56,66.45 94.33,67.08C94.52,81.23 28.75,81.05 28.55,67.12Z" style="fill:white;"/>
                <path d="M38.6,90.95C49.71,100.56 70.44,100.94 82.9,90.95C76.12,83.24 68.72,83 60.51,89.07C52.05,82.3 46.38,82.11 38.6,90.95Z" style="fill:rgb(255,0,0);"/>
            </g>
        </g>
    </g>
    <g id="ice-cream-color.svg" transform="matrix(1.82585,0,0,1.82585,95.9265,377.288)">
        <g transform="matrix(1,0,0,1,-30.975,-61.44)">
            <clipPath id="_clip2">
                <rect x="0" y="0" width="61.95" height="122.88"/>
            </clipPath>
            <g clip-path="url(#_clip2)">
                <path d="M44,20.38C44,11.38 27.8,10.75 37.22,1.91C25.78,-2.47 13.66,5.24 16.31,19.46C7.68,20.78 4,29.62 8.36,38.12C-1.11,40.74 -3.38,50.7 6,58.62L55.29,58.62C66.49,53 62.36,37 51.78,34.79C53.73,26.47 50.32,22.3 44,20.38Z" style="fill:rgb(239,108,147);fill-rule:nonzero;"/>
                <path d="M44,20.38C44.002,19.651 43.89,18.925 43.67,18.23C41.643,20.43 39.129,22.126 36.33,23.18C34.221,24.017 31.869,24.017 29.76,23.18C29.547,23.101 29.321,23.061 29.094,23.061C28.04,23.061 27.174,23.927 27.174,24.981C27.174,25.693 27.57,26.349 28.2,26.68C31.186,27.934 34.543,27.991 37.57,26.84C40.818,25.631 43.752,23.702 46.15,21.2C45.451,20.888 44.733,20.621 44,20.4L44,20.38Z" style="fill-rule:nonzero;"/>
                <path d="M55.35,36.16C54.241,35.515 53.036,35.053 51.78,34.79C51.96,34 52.1,33.24 52.19,32.52C49.11,33.294 46.12,34.39 43.27,35.79C36.89,38.62 29.61,41.85 23.44,38.71C23.188,38.594 22.913,38.533 22.635,38.533C21.582,38.533 20.715,39.4 20.715,40.453C20.715,41.148 21.093,41.791 21.7,42.13C29.49,46.13 37.7,42.48 44.82,39.31C48.95,37.47 52.71,35.81 55.3,36.15L55.35,36.16Z" style="fill-rule:nonzero;"/>
                <path d="M26.26,122.88L4.11,63.13C23.85,62.23 33.5,63.28 55.6,63.13L32.45,122.88L26.26,122.88Z" style="fill:rgb(248,175,70);fill-rule:nonzero;"/>
                <path d="M26,109.12L23.83,103.25L37.69,100.11L34.99,107.11L25.99,109.11L26,109.12ZM21.54,97.12L19.37,91.26L43.23,85.84L40.53,92.84L21.53,97.15L21.54,97.12ZM17.09,85.12L14.87,79.2L48.73,71.52L46.03,78.52L17.03,85.1L17.09,85.12Z" style="fill:rgb(250,200,130);fill-rule:nonzero;"/>
                <path d="M38.12,0C38.123,-0 38.127,-0 38.13,-0C43.468,-0 47.86,4.392 47.86,9.73C47.86,15.068 43.468,19.46 38.13,19.46C32.793,19.46 28.4,15.068 28.4,9.73C28.4,7.151 29.426,4.674 31.25,2.85C33.069,1.025 35.543,-0.002 38.12,0Z" style="fill-rule:nonzero;"/>
                <path d="M38.12,1.92C42.399,1.92 45.92,5.441 45.92,9.72C45.92,13.999 42.399,17.52 38.12,17.52C33.841,17.52 30.32,13.999 30.32,9.72C30.32,5.441 33.841,1.92 38.12,1.92Z" style="fill:rgb(238,63,105);fill-rule:nonzero;"/>
                <path d="M22.3,13.83C23.397,13.83 24.3,14.733 24.3,15.83C24.3,16.927 23.397,17.83 22.3,17.83C21.203,17.83 20.3,16.927 20.3,15.83C20.3,14.733 21.203,13.83 22.3,13.83Z" style="fill-rule:nonzero;"/>
                <path d="M29.87,47.08L29.88,47.08C30.643,47.08 31.27,47.707 31.27,48.47C31.27,49.232 30.643,49.86 29.88,49.86C29.117,49.86 28.49,49.233 28.49,48.47C28.49,48.467 28.49,48.463 28.49,48.46C28.49,47.703 29.113,47.08 29.87,47.08Z" style="fill-rule:nonzero;"/>
                <path d="M23.95,50.62L25.72,52.72" style="fill:none;fill-rule:nonzero;stroke:white;stroke-width:1.54px;"/>
                <path d="M51.65,46C52.413,46 53.04,46.627 53.04,47.39C53.04,48.153 52.412,48.78 51.65,48.78C50.887,48.78 50.26,48.153 50.26,47.39L50.26,47.38C50.26,46.623 50.883,46 51.64,46C51.643,46 51.647,46 51.65,46Z" style="fill-rule:nonzero;"/>
                <path d="M45.73,49.5L47.5,51.6" style="fill:none;fill-rule:nonzero;stroke:white;stroke-width:1.54px;"/>
                <path d="M12.52,44.64C13.277,44.64 13.9,45.263 13.9,46.02C13.9,46.777 13.277,47.4 12.52,47.4C11.763,47.4 11.14,46.777 11.14,46.02C11.14,46.013 11.14,46.007 11.14,46C11.14,45.243 11.763,44.62 12.52,44.62L12.52,44.64Z" style="fill-rule:nonzero;"/>
                <path d="M6.61,48.17L8.37,50.27" style="fill:none;fill-rule:nonzero;stroke:white;stroke-width:1.54px;"/>
            </g>
        </g>
    </g>
</svg>
